X:21174 
T:RISING SUN (reel), The
B:DMI.0608
Z:Nordberg/Black
R:reel
%Q:1/4=180
M:C
L:1/8
K:D
fe|d2FB A2FA|Bdeg fdBc|d2FB AGFD|EGFE Dgfe|
d2FB A2FA|Bdeg fdBc|dcdB AGFD|EGFE D2||
Ac|defg afed|cA eA fAec|defg afed|cA Bc d2Ac|
defg afed|cA eA fAec|dfff dggg|fgfe d2||
fg|afbf afdf|gfed cdeg|afbf afdf|abag fdeg|
afbg afdf|gfed fdBc|d2FG A2de|faef Hd4|]

%%%

